icon/lg/bitbar.svg

<?xml version="1.0" encoding="UTF-8"?>
<svg viewBox="0 0 256 256" version="1.1" xmlns="http://www.w3.org/2000/svg" preserveAspectRatio="xMidYMid" height="1em" width="1em">
  <g>
    <rect fill="#50E4EA" x="6.731025" y="6.73" width="242.53795" height="242.54"/>
    <path d="M242.53795,13.4603496 L242.53795,242.542346 L13.4620504,242.542346 L13.4620504,13.4603496 L242.53795,13.4603496 M256,0 L0,0 L0,256 L256,256 L256,0 Z" fill="#173647"/>
    <path d="M167.248589,77.1870946 C184.055246,70.3165513 203.344954,74.231197 216.143717,87.1098526 C228.942479,99.9885081 232.737014,119.302203 225.76202,136.065781 C218.787026,152.829359 202.412177,163.750971 184.255412,163.749642 L176.66997,163.774286 C172.279134,182.859217 157.767448,198.490428 138.28293,203.898288 C114.782351,210.420792 89.8167061,200.469877 77.2462489,179.570023 C74.336888,174.732871 72.256811,169.584082 70.9859823,164.30755 L64.6685199,164.339988 C44.7250949,164.310277 28.5676622,148.14561 28.5468789,128.202173 C28.5468789,108.146576 42.0251032,94.6710471 62.0780052,94.6710471 L63.4446972,94.6710471 C68.0370384,71.7650535 86.2896091,54.0696654 109.326925,50.1894319 C132.364241,46.3091984 155.406262,57.0492337 167.248589,77.1870946 Z M118.667678,61.692528 C94.8553596,62.0951457 75.43572,80.8958749 74.2623199,104.682672 L74.2623199,108.995704 C69.7810866,107.672345 65.1331679,106.99876 60.4606183,106.995535 C48.3005644,107.637099 40.8174543,115.637773 40.8174543,128.199478 C40.8323069,141.366337 51.5016623,152.036898 64.6685199,152.053239 L69.4810155,152.028291 C69.3745809,138.327966 74.4464982,124.714074 84.3629947,114.250096 C100.888865,96.8118463 126.872498,92.3390538 148.238677,103.135491 L149.206638,103.636762 L141.658832,114.578384 C125.14431,106.581314 105.330439,110.484864 93.0832744,124.148302 C80.83611,137.81174 79.1154157,157.933033 88.8648314,173.477532 C98.6142471,189.022031 117.477639,196.23311 135.1102,191.156165 C152.401064,186.177605 164.410647,170.562507 164.860639,152.656462 L164.854856,151.524893 L184.263499,151.465588 C198.050663,151.48455 210.366829,142.849366 215.048523,129.881406 C219.730217,116.913446 215.770347,102.402285 205.150581,93.6098552 C194.530815,84.8174254 179.535602,83.6350908 167.66911,90.6545363 L161.738691,94.1588746 L158.943307,87.8780221 C151.852589,71.9742766 136.080508,61.7199434 118.667678,61.692528 Z M155.730099,120.045152 L164.895291,129.479909 L117.155421,175.855783 L95.0268722,153.72993 L104.326847,144.429955 L117.290203,157.390616 L155.730099,120.045152 Z" fill="#173647"/>
  </g>
</svg>

<svg width="256" height="256" xmlns="http://www.w3.org/2000/svg" preserveAspectRatio="xMidYMid"><path fill="#50E4EA" d="M6.731 6.73h242.538v242.54H6.731z"/><path d="M242.538 13.46v229.082H13.462V13.46h229.076M256 0H0v256h256V0Z" fill="#173647"/><path d="M167.249 77.187a44.953 44.953 0 1 1 17.006 86.563l-7.585.024c-4.39 19.085-18.903 34.716-38.387 40.124-23.5 6.523-48.466-3.428-61.037-24.328a54.219 54.219 0 0 1-6.26-15.262l-6.317.032c-19.944-.03-36.101-16.194-36.122-36.138 0-20.055 13.478-33.531 33.531-33.531h1.367c4.592-22.906 22.845-40.601 45.882-44.482 23.037-3.88 46.08 6.86 57.922 26.998Zm-48.581-15.494c-23.813.402-43.232 19.203-44.406 42.99v4.313a48.85 48.85 0 0 0-13.801-2c-12.16.641-19.644 8.642-19.644 21.203.015 13.167 10.685 23.838 23.852 23.854l4.812-.025c-.106-13.7 4.965-27.314 14.882-37.778 16.526-17.438 42.51-21.91 63.876-11.115l.968.502-7.548 10.941c-16.515-7.997-36.329-4.093-48.576 9.57-12.247 13.664-13.968 33.785-4.218 49.33 9.75 15.544 28.613 22.755 46.245 17.678 17.291-4.978 29.3-20.593 29.75-38.5l-.005-1.131 19.408-.06a32.682 32.682 0 1 0-16.594-60.81l-5.93 3.504-2.796-6.281a44.174 44.174 0 0 0-40.275-26.185Zm37.062 58.352 9.165 9.435-47.74 46.376-22.128-22.126 9.3-9.3 12.963 12.96 38.44-37.345Z" fill="#173647"/></svg>
